X:1
T:Title
%%score { 1 | 2 }
L:1/8
Q:1/4=100
M:2/4
K:G
V:1 treble nm="Grand Piano"
V:2 treble 
V:1
 B2 G>A | B2 d>B | [FA]2 [EG]>[FA] | B3 c | d2 e>d | B2 G>B | [FA]2 [A,EG]>[G,^CE] |[M:3/8] D3 | %8
w: William~Stevenson * *||||||||
[M:1/8] D |[M:2/4] D2 G>A | B2 d>B | [FA]2 G>[FA] | B3 c | d2 B>[DA] | [G,EG]2 [G,CE]>[CEA] | %15
w: |||||||
 [B,DG]2 [DB]>[CDA] | [B,DG]4 | B2 d>c | B2 .G2 | [FA]2 G>[FA] | B2 .d2 | B>A G[DA] | %22
w: |||||||
[M:9/16] [EG][CE]/-[CE]/[Ec]-[Ec]/ z/ z/ |[M:2/4] [DB]2 [Gd]>[DB] | [CDA]2 [B,DG]2 |] %25
w: |||
V:2
 [G,DG]2 [G,B,D]>[F,CD] | [G,DG]2 [G,B,G]>[G,DG] | [D,D]2 [D,D]>[D,D] | [G,DG]3 [G,A,G] | %4
 [G,B,G]2 [G,CG]>[G,B,G] | [G,DG]2 [G,B,D]>[G,DG] | [A,D]A, A,,>A,, |[M:3/8] [D,F,]3 | %8
[M:1/8] [D,F,C] |[M:2/4] [G,B,]2[K:treble] [G,B,D]>[G,CD] | [G,DG]2 [G,B,G]>[G,DG] | %11
 [D,C]2 [D,B,]>[D,D] | [G,DG]3 [G,A,G] | [G,B,G]2[K:bass] [G,D]>[B,,G,] | C,2 C,>C, | D,2 D,>D, | %16
 G,,4 | [G,DG]2 [G,B,G]>[G,EG] | [G,DG]2 .[G,B,D]2 | [D,C]2 [D,B,]>[D,D] | [G,DG]2 .[G,B,G]2 | %21
 [G,D]>[G,C] [G,B,][K:bass][B,,G,] |[M:9/16] [C,G,][C,G,]/-[C,G,]/[C,G,]-[C,G,]/ z/ z/ | %23
[M:2/4] [D,G,]2 [D,B,]>[D,G,] | D,2 G,,2 |] %25

